svg/m/MP.svg

<svg width="20" height="15" viewBox="0 0 20 15" fill="none" xmlns="http://www.w3.org/2000/svg">
<mask id="mask0" mask-type="alpha" maskUnits="userSpaceOnUse" x="0" y="0" width="20" height="15">
<rect width="20" height="15" fill="white"/>
</mask>
<g mask="url(#mask0)">
<path fill-rule="evenodd" clip-rule="evenodd" d="M0 0H21.25V15H0V0Z" fill="#2993EC"/>
<path fill-rule="evenodd" clip-rule="evenodd" d="M3.88293 7.23958C3.88293 10.5475 6.62162 13.2292 9.99996 13.2292C13.3783 13.2292 16.117 10.5475 16.117 7.23958C16.117 3.93163 13.3783 1.25 9.99996 1.25C6.62162 1.25 3.88293 3.93163 3.88293 7.23958ZM14.7872 7.23958C14.7872 9.82842 12.6439 11.9271 9.99996 11.9271C7.35604 11.9271 5.21272 9.82842 5.21272 7.23958C5.21272 4.65075 7.35604 2.55208 9.99996 2.55208C12.6439 2.55208 14.7872 4.65075 14.7872 7.23958Z" fill="#F1F9FF"/>
<path fill-rule="evenodd" clip-rule="evenodd" d="M4.41486 7.23962C4.41486 10.2599 6.91539 12.7084 9.99996 12.7084C13.0845 12.7084 15.5851 10.2599 15.5851 7.23962C15.5851 4.21932 13.0845 1.77087 9.99996 1.77087C6.91539 1.77087 4.41486 4.21932 4.41486 7.23962ZM15.3191 7.23962C15.3191 10.1161 12.9376 12.448 9.99996 12.448C7.06228 12.448 4.68081 10.1161 4.68081 7.23962C4.68081 4.36314 7.06228 2.03129 9.99996 2.03129C12.9376 2.03129 15.3191 4.36314 15.3191 7.23962Z" fill="#E31D1C"/>
<path fill-rule="evenodd" clip-rule="evenodd" d="M9.99998 1.38025C9.93256 1.51942 9.89885 1.71718 9.89885 1.97354C9.89885 2.2299 9.79958 2.48652 9.60105 2.74339C9.56417 2.46058 9.54573 2.20396 9.54573 1.97354C9.54573 1.74312 9.69715 1.54536 9.99998 1.38025ZM11.3976 1.59189C11.3006 1.71233 11.2233 1.89744 11.1656 2.14722C11.108 2.39701 10.9535 2.62472 10.7023 2.83035C10.73 2.54649 10.7697 2.29231 10.8216 2.06779C10.8734 1.84328 11.0654 1.68464 11.3976 1.59189ZM12.3581 2.60496C12.4745 2.37655 12.5943 2.21564 12.7176 2.12225C12.3728 2.13188 12.1481 2.23935 12.0435 2.44465C11.9389 2.64996 11.8388 2.88698 11.7433 3.15571C12.0368 3.01696 12.2417 2.83338 12.3581 2.60496ZM13.8695 2.92754C13.7284 2.99081 13.5754 3.12064 13.4106 3.31702C13.2459 3.5134 13.0049 3.64617 12.6877 3.71534C12.8412 3.47499 12.992 3.26655 13.1401 3.09004C13.2882 2.91353 13.5314 2.85936 13.8695 2.92754ZM14.2675 4.2476C14.4722 4.09332 14.6504 4.00123 14.8021 3.97132C14.488 3.82883 14.239 3.82692 14.0549 3.96559C13.8709 4.10426 13.6771 4.27342 13.4734 4.47307C13.798 4.47704 14.0627 4.40188 14.2675 4.2476ZM15.4666 5.21019C15.3121 5.20251 15.1169 5.24875 14.8809 5.34892C14.645 5.44908 14.37 5.45798 14.0559 5.37559C14.3019 5.23115 14.5309 5.11391 14.743 5.02387C14.9551 4.93384 15.1963 4.99595 15.4666 5.21019ZM15.2203 6.55685C15.4727 6.51234 15.6733 6.51119 15.8221 6.55343C15.6069 6.28386 15.3859 6.16909 15.1589 6.2091C14.932 6.24911 14.6825 6.31183 14.4104 6.39726C14.6978 6.54817 14.9678 6.60137 15.2203 6.55685ZM3.80249 6.10608C3.92784 6.19664 4.11675 6.26418 4.36921 6.3087C4.62167 6.35322 4.85715 6.49554 5.07565 6.73566C4.79073 6.72287 4.53481 6.69646 4.30789 6.65645C4.08097 6.61644 3.9125 6.43298 3.80249 6.10608ZM4.76323 5.11697C4.52725 5.0168 4.35838 4.9085 4.25661 4.79206C4.29027 5.13533 4.41315 5.35198 4.62525 5.44201C4.83736 5.53204 5.08078 5.61534 5.35552 5.6919C5.19663 5.40878 4.9992 5.21714 4.76323 5.11697ZM5.01695 3.60854C5.08752 3.74614 5.22518 3.89208 5.42991 4.04636C5.63465 4.20064 5.77985 4.43435 5.86552 4.7475C5.61746 4.60675 5.40142 4.46704 5.2174 4.32837C5.03338 4.1897 4.96656 3.94976 5.01695 3.60854ZM6.32811 3.15505C6.16333 2.95867 6.06203 2.7855 6.02422 2.63555C5.89837 2.95669 5.9095 3.20552 6.05761 3.38203C6.20572 3.55854 6.38479 3.74327 6.59483 3.93621C6.5818 3.61182 6.49289 3.35143 6.32811 3.15505ZM7.23288 1.91602C7.23599 2.07063 7.29574 2.26215 7.41212 2.49057C7.52851 2.71898 7.55656 2.9927 7.49628 3.31171C7.33503 3.07646 7.2021 2.85618 7.0975 2.65088C6.99289 2.44557 7.03802 2.20062 7.23288 1.91602ZM8.62561 2.09054C8.56794 1.84075 8.5563 1.64047 8.59069 1.4897C8.33276 1.7187 8.22971 1.94546 8.28154 2.16997C8.33337 2.39449 8.40907 2.64038 8.50861 2.90765C8.64428 2.6127 8.68327 2.34033 8.62561 2.09054Z" fill="#FDDA33"/>
<path fill-rule="evenodd" clip-rule="evenodd" d="M9.11633 3.59375C8.88711 3.59375 8.71659 3.80563 8.76559 4.02955L9.00738 5.13438C9.02862 5.23145 9.08798 5.31209 9.16765 5.36199C9.09417 5.41912 9.04318 5.50442 9.03144 5.60302L8.16421 12.8815C8.1483 13.015 8.20804 13.1459 8.32479 13.2126C8.65119 13.3992 9.35884 13.75 10.0665 13.75C10.7741 13.75 11.4818 13.3992 11.8082 13.2126C11.9249 13.1459 11.9847 13.015 11.9688 12.8815L11.1016 5.60302C11.0898 5.50442 11.0388 5.41912 10.9653 5.36199C11.045 5.31209 11.1044 5.23145 11.1256 5.13438L11.3674 4.02955C11.4164 3.80563 11.2459 3.59375 11.0167 3.59375H9.11633Z" fill="#A7A7A7"/>
<path d="M4.07452 7.50797C4.10676 7.40482 4.21828 7.34679 4.32362 7.37835C4.42897 7.40991 4.48823 7.51912 4.456 7.62227C4.40023 7.80073 4.40023 8.06432 4.46175 8.40919C4.48535 8.54147 4.51341 8.64361 4.54792 8.73383C4.56166 8.76978 4.57588 8.80267 4.59487 8.8435C4.58642 8.82532 4.63278 8.92379 4.64405 8.94931C4.70367 9.08425 4.73003 9.2025 4.73003 9.37575C4.73003 9.48361 4.64073 9.57106 4.53057 9.57106C4.4204 9.57106 4.3311 9.48361 4.3311 9.37575C4.3311 9.25735 4.31644 9.19162 4.27791 9.10441C4.26883 9.08386 4.22553 8.99188 4.23184 9.00544C4.20933 8.95706 4.1917 8.91627 4.17432 8.87082C4.13102 8.75762 4.09655 8.63213 4.06877 8.47641C3.99739 8.07631 3.99739 7.75479 4.07452 7.50797Z" fill="#73BE4A"/>
<path fill-rule="evenodd" clip-rule="evenodd" d="M10.1329 10.112L7.56137 11.8642L8.46859 8.92799L5.97206 7.07469L9.10431 7.01219L10.1329 4.11462L11.1616 7.01219L14.2938 7.07469L11.7973 8.92799L12.7045 11.8642L10.1329 10.112Z" fill="#F7FCFF"/>
<path d="M15.9747 7.76846C15.9424 7.66532 15.8309 7.60729 15.7256 7.63885C15.6202 7.67041 15.561 7.77962 15.5932 7.88276C15.649 8.06123 15.649 8.32482 15.5874 8.66969C15.5638 8.80197 15.5358 8.9041 15.5013 8.99433C15.4875 9.03027 15.4733 9.06317 15.4543 9.104C15.4628 9.08582 15.4164 9.18429 15.4051 9.20981C15.3455 9.34474 15.3192 9.463 15.3192 9.63624C15.3192 9.74411 15.4085 9.83156 15.5186 9.83156C15.6288 9.83156 15.7181 9.74411 15.7181 9.63624C15.7181 9.51785 15.7328 9.45212 15.7713 9.36491C15.7804 9.34436 15.8237 9.25238 15.8174 9.26594C15.8399 9.21756 15.8575 9.17676 15.8749 9.13132C15.9182 9.01811 15.9526 8.89263 15.9804 8.73691C16.0518 8.33681 16.0518 8.01528 15.9747 7.76846Z" fill="#73BE4A"/>
<path d="M10.038 1.96729C10.038 1.96729 10.7658 2.29149 10.4515 2.80197" stroke="#73BE4A" stroke-width="0.625" stroke-linecap="round" stroke-linejoin="round"/>
<path d="M10.5699 1.96729C10.5699 1.96729 11.2977 2.29149 10.9834 2.80197" stroke="#73BE4A" stroke-width="0.625" stroke-linecap="round" stroke-linejoin="round"/>
<path d="M5.78736 3.97299C5.84012 3.88167 5.95094 3.85417 6.03488 3.91157C6.11883 3.96897 6.1441 4.08954 6.09134 4.18087C5.99011 4.35609 5.93741 4.59649 5.93741 4.90474C5.93741 5.01261 5.85704 5.10005 5.75789 5.10005C5.65874 5.10005 5.57837 5.01261 5.57837 4.90474C5.57837 4.52802 5.64664 4.21655 5.78736 3.97299Z" fill="#73BE4A"/>
<path d="M5.50528 5.75786C5.50528 5.86573 5.42491 5.95317 5.32576 5.95317C5.22661 5.95317 5.14624 5.86573 5.14624 5.75786V5.20151C5.14624 4.80784 5.20799 4.49782 5.33819 4.27143C5.39078 4.17998 5.50155 4.15224 5.5856 4.20945C5.66965 4.26667 5.69515 4.38718 5.64256 4.47863C5.55328 4.63387 5.50528 4.87484 5.50528 5.20151V5.75786Z" fill="#73BE4A"/>
<path d="M14.6776 5.49736C14.6776 5.60523 14.758 5.69268 14.8571 5.69268C14.9562 5.69268 15.0366 5.60523 15.0366 5.49736V4.94101C15.0366 4.54734 14.9749 4.23732 14.8447 4.01093C14.7921 3.91949 14.6813 3.89174 14.5973 3.94896C14.5132 4.00617 14.4877 4.12669 14.5403 4.21813C14.6296 4.37338 14.6776 4.61434 14.6776 4.94101V5.49736Z" fill="#73BE4A"/>
<path d="M15.2095 6.40886C15.2095 6.51673 15.2899 6.60417 15.389 6.60417C15.4882 6.60417 15.5685 6.51673 15.5685 6.40886V5.85251C15.5685 5.45884 15.5068 5.14882 15.3766 4.92243C15.324 4.83098 15.2132 4.80324 15.1292 4.86046C15.0451 4.91767 15.0196 5.03818 15.0722 5.12963C15.1615 5.28487 15.2095 5.52584 15.2095 5.85251V6.40886Z" fill="#73BE4A"/>
</g>
</svg>

<svg width="20" height="15" fill="none" xmlns="http://www.w3.org/2000/svg">
  <mask id="a" maskUnits="userSpaceOnUse" x="0" y="0" width="20" height="15">
    <path fill="#fff" d="M0 0h20v15H0z"/>
  </mask>
  <g mask="url(#a)">
    <path fill-rule="evenodd" clip-rule="evenodd" d="M0 0h21.25v15H0V0z" fill="#2993EC"/>
    <path fill-rule="evenodd" clip-rule="evenodd" d="M3.883 7.24c0 3.307 2.739 5.99 6.117 5.99s6.117-2.683 6.117-5.99c0-3.308-2.739-5.99-6.117-5.99S3.883 3.932 3.883 7.24zm10.904 0c0 2.588-2.143 4.687-4.787 4.687S5.213 9.828 5.213 7.24c0-2.59 2.143-4.688 4.787-4.688s4.787 2.099 4.787 4.688z" fill="#F1F9FF"/>
    <path fill-rule="evenodd" clip-rule="evenodd" d="M4.415 7.24c0 3.02 2.5 5.468 5.585 5.468s5.585-2.448 5.585-5.468-2.5-5.47-5.585-5.47-5.585 2.45-5.585 5.47zm10.904 0c0 2.876-2.381 5.208-5.319 5.208S4.68 10.116 4.68 7.24c0-2.877 2.383-5.21 5.32-5.21s5.32 2.332 5.32 5.209z" fill="#E31D1C"/>
    <path fill-rule="evenodd" clip-rule="evenodd" d="M10 1.38c-.067.14-.101.337-.101.594 0 .256-.1.512-.298.77a6.003 6.003 0 01-.055-.77c0-.23.151-.429.454-.594zm1.398.212c-.097.12-.175.305-.232.555-.058.25-.213.478-.464.683a6.01 6.01 0 01.12-.762c.051-.225.243-.383.576-.476zm.96 1.013c.117-.228.236-.39.36-.483-.345.01-.57.117-.675.323a5.997 5.997 0 00-.3.71c.294-.138.499-.322.615-.55zm1.511.322c-.14.064-.294.194-.458.39-.165.196-.406.33-.723.398.153-.24.304-.448.452-.625.148-.177.391-.23.73-.163zm.399 1.32c.204-.154.382-.246.534-.276-.314-.142-.563-.144-.747-.005a5.998 5.998 0 00-.582.507c.325.004.59-.071.794-.225zm1.199.963c-.155-.008-.35.039-.586.139s-.511.109-.825.027a6 6 0 01.687-.352c.212-.09.453-.028.724.186zm-.247 1.347c.253-.045.453-.046.602-.004-.215-.27-.436-.384-.663-.344a6.07 6.07 0 00-.749.188c.288.151.558.204.81.16zM3.803 6.106c.125.09.314.158.566.203.253.044.488.186.707.427a6.001 6.001 0 01-.768-.08c-.227-.04-.395-.223-.505-.55zm.96-.99c-.236-.1-.405-.208-.506-.324.033.343.156.56.368.65.212.09.456.173.73.25-.158-.283-.356-.475-.592-.575zm.254-1.508c.07.138.208.284.413.438.205.155.35.388.436.701a6.001 6.001 0 01-.649-.419c-.184-.138-.25-.378-.2-.72zm1.311-.453c-.165-.196-.266-.37-.304-.52-.126.322-.114.57.034.747.148.176.327.361.537.554-.013-.324-.102-.585-.267-.781zm.905-1.239c.003.155.063.346.18.575.116.228.144.502.083.82a6.002 6.002 0 01-.398-.66c-.105-.205-.06-.45.135-.735zm1.393.175c-.058-.25-.07-.45-.035-.601-.258.229-.361.455-.31.68.052.224.128.47.228.738.135-.295.174-.568.117-.817z" fill="#FDDA33"/>
    <path fill-rule="evenodd" clip-rule="evenodd" d="M9.116 3.594c-.229 0-.4.212-.35.436l.241 1.104a.365.365 0 00.16.228.358.358 0 00-.136.241l-.867 7.279a.332.332 0 00.16.33c.327.187 1.035.538 1.742.538.708 0 1.416-.35 1.742-.537a.332.332 0 00.16-.331l-.866-7.279a.359.359 0 00-.137-.241c.08-.05.14-.13.16-.228l.242-1.104a.359.359 0 00-.35-.436h-1.9z" fill="#A7A7A7"/>
    <path d="M4.075 7.508a.2.2 0 01.249-.13.195.195 0 01.132.244c-.056.179-.056.442.006.787a1.754 1.754 0 00.133.435l.05.105a.978.978 0 01.085.427c0 .108-.09.195-.2.195a.197.197 0 01-.199-.195.588.588 0 00-.053-.272 8.385 8.385 0 00-.046-.099 2.007 2.007 0 01-.163-.529c-.072-.4-.072-.721.006-.968z" fill="#73BE4A"/>
    <path fill-rule="evenodd" clip-rule="evenodd" d="M10.133 10.112l-2.572 1.752.908-2.936-2.497-1.853 3.132-.063 1.029-2.897 1.029 2.897 3.132.063-2.497 1.853.907 2.936-2.571-1.752z" fill="#F7FCFF"/>
    <path d="M15.975 7.768a.2.2 0 00-.25-.13.195.195 0 00-.132.245c.056.178.056.442-.006.787a1.756 1.756 0 01-.133.434l-.049.106a.966.966 0 00-.086.426c0 .108.09.196.2.196.11 0 .2-.088.2-.196 0-.118.014-.184.052-.271l.046-.1a1.971 1.971 0 00.163-.528c.072-.4.072-.722-.005-.969z" fill="#73BE4A"/>
    <path d="M10.038 1.967s.728.324.413.835m.119-.835s.728.324.413.835" stroke="#73BE4A" stroke-width=".625" stroke-linecap="round" stroke-linejoin="round"/>
    <path d="M5.787 3.973a.171.171 0 01.248-.061c.084.057.11.178.056.269-.1.175-.154.415-.154.724 0 .108-.08.195-.18.195-.098 0-.179-.087-.179-.195 0-.377.069-.688.21-.932z" fill="#73BE4A"/>
    <path d="M5.505 5.758c0 .108-.08.195-.18.195-.098 0-.179-.087-.179-.195V5.2c0-.393.062-.703.192-.93a.171.171 0 01.248-.062c.084.058.11.178.057.27-.09.155-.138.396-.138.722v.557zm9.173-.261c0 .108.08.196.18.196.098 0 .179-.088.179-.196v-.556c0-.394-.062-.704-.192-.93a.171.171 0 00-.248-.062.206.206 0 00-.057.27c.09.154.138.395.138.722v.556z" fill="#73BE4A"/>
    <path d="M15.21 6.409c0 .108.08.195.18.195.098 0 .179-.087.179-.195v-.556c0-.394-.062-.704-.192-.93a.171.171 0 00-.248-.063.206.206 0 00-.057.27c.09.155.138.396.138.723v.556z" fill="#73BE4A"/>
  </g>
</svg>
